assets/images/vector/icons/align_horizontal_icon.svg

<svg fill="none" height="52" viewBox="0 0 52 52" width="52" xmlns="http://www.w3.org/2000/svg"><g stroke="#111" stroke-linecap="round" stroke-linejoin="round" stroke-width="10"><path d="m5 36.6667v5c0 2.7615 2.23858 5 5 5h31.6667c2.7614 0 5-2.2385 5-5v-5c0-2.7614-2.2386-5-5-5h-31.6667c-2.76142 0-5 2.2386-5 5z"/><path d="m15 10v5c0 2.7614 2.2386 5 5 5h11.6667c2.7614 0 5-2.2386 5-5v-5c0-2.76142-2.2386-5-5-5h-11.6667c-2.7614 0-5 2.23858-5 5z"/></g></svg>

<svg width="52" height="52" viewBox="0 0 52 52" fill="none" xmlns="http://www.w3.org/2000/svg">
<path d="M5 36.6667L5 41.6667C5 44.4282 7.23858 46.6667 10 46.6667H41.6667C44.4281 46.6667 46.6667 44.4282 46.6667 41.6667V36.6667C46.6667 33.9053 44.4281 31.6667 41.6667 31.6667H10C7.23858 31.6667 5 33.9053 5 36.6667Z" stroke="#111111" stroke-width="10" stroke-linecap="round" stroke-linejoin="round"/>
<path d="M15 10V15C15 17.7614 17.2386 20 20 20H31.6667C34.4281 20 36.6667 17.7614 36.6667 15V10C36.6667 7.23858 34.4281 5 31.6667 5L20 5C17.2386 5 15 7.23858 15 10Z" stroke="#111111" stroke-width="10" stroke-linecap="round" stroke-linejoin="round"/>
</svg>
